X:1
T:THE OLD HAUNTED MILL
T:THE OLD HAUNTED MILL
T:Music by Jos. Schwenseck.
T:Words by Theo. D.C. Miller M.D.
T:1881
T:1881
T:1881
T:1881
T:1881
T:1881
T:1881
T:1881
C:Music by Jos. Schwenseck.
Z:Words by Theo. D.C. Miller M.D.
Z:1881
%%score 1 { 2 | 3 }
L:1/8
Q:1/4=92
M:6/8
K:Eb
V:1 treble nm="Voice"
V:2 treble nm="Piano"
V:3 bass 
V:1
"^Andantino" z | z/ z/ z z z2 z | z6 | z6 | z6 || G/A/ | B>AB G>Be | fA>B c2 d/c/ | dD>F Ad>c | %9
w: |||||On the|shores of a Lake, in the|heart of the wood In it's|old rus- tic beau- ty, the|
 BE>"^rall."F G2"^a tempo." G/A/ | B>cB GBe |!<(! gd>^c!<)! d2 c/d/ | =e"^rall,"=A>B c=E>^F | %13
w: haun ted Mill stood; Where the|swal- lows were build ing their|nests in the caves, And the|Owl wise- ly sat on his|
 =Ac^F G2"^a tempo. \ndolce.\n" =F/G/ | AA>G AGA | Be>G B2 F/G/ | AA>A AGA | Be>G BBB | %18
w: perch in the leaves. There the|I- vy was climb ing up|walls, old and worn, And it|cover ed the roof from which|shing les were torn. While the|
 ed>c B2 =A/B/ | cB>A G2 G | F>Ad/c/ B!fermata!g>e | dd>d e2 z | z6 | z2 z z2 |[K:G] G/G/ | %25
w: wheel, ripe with age, for long|years had been still, And|none earn ed their bread in the|old haunt ed Mill.|||But a|
 G>FG DG>G | B>^AB G2 F/G/ | A>^GA DA>B | c>Bc A2 B/c/ | d>^cd dg>d | edA B2 B | e>^de =d>cB | %32
w: round it fond Mem o- ries|lin- ger to- day, In our|child hood's brief years near the|Mill we would play, And the|Mil- ler, with locks soft- ly|sil vered with age. Would|tell us strange stor ies, as|
"^rall." AG>F G2 ||[K:Eb]"^a tempo." F/G/ | A>AA AGA | Be>G B2 F/G/ | A>GA AGA | Be>G B2 B/B/ | %38
w: wise as a sage!|There we|watch'd the old wheel, as it|moved day by day, by the|waves turned a- round, as they|dashed in- to spray; And the|
 e>dc B2 =A/B/ | cB>A G2 G/G/ | F2 d/c/ B!fermata!ge | c!fermata![Aa]>B e2 z | z6 | z2 z z2 || %44
w: songs of the birds in the|for- est would thrill E'en the|hearts of the young by the|old haunt ed Mill.|||
 E/E/ | E>DE C2 E/F/ | G>_G=G E2 G/G/ | G>_G=G cBA | dcB F2 B,/B,/ | B,FG c2 D/D/ | DAB c2 B/B/ | %51
w: But the|Mil- ler went out when his|la- bor was done, And they|laid him to rest at the|set of the sun; Then the|bat found a place where the|Mil- ler had lain, While he|
 [Bd]3/2 z B>cB x/ |"^rall." AGF E2"^dolce." F/"^a tempo."G/ | A>AA AGA | BeG B2 F/G/ | AA>A AGA | %56
w: watched the wheel as it|ground up the grain! Soon the|raf- ters grew old, rot- ten|beams fell a- way, And strange|sounds may be heard in the|
 Be>G B2 B/B/ | e>dc B2 =A/B/ | cB>A G2 G/G/ |"^rall." FGA G!fermata!B,>G | F!fermata!B,>F E x || %61
w: old Mill to- day; Now the|for- est is lone, and the|old wheel is still, And a|deep sl- lence reigns round the|old haunt- ed Mill.|
"^Slow." E/ z/ | E>CE AEA | c>Bc e2 d/c/ | B>cB E>FG | G_G>E F2 D/E/ | FA>c B>^cd | Bde f2 e/e/ | %68
w: was|si- lence and gloom, and the|shad ows grew deep When the|twi light's soft shades o'er the|calm earth would creep; And no|waves beat ag ainst the old|wheel worn and still since the|
 e>"^rall - en  -    tan  -  do."dc B>AG | AGF E2 z!fine! |] %70
w: Mil- ler went out from the|old haunt- ed Mill.|
V:2
 (B,/C/) | (D/F/A/B/d/f/ b2) (E/F/) | (G/B/e/g/b/c'/) e'2 (f'/e'/) | %3
 (f'/a/c'/b/a/f/ d/B/^G/F/)(D/B,/) | EF/E/(D/E/ G/B/) !arpeggio![EGBe]2 || z/ z/ | %6
 z/ (G,/B,/G/E/G/) z/ (E/G/e/B/e/) | z/ (F/A/f/c/f/) z/ (C/F/c/A/c/) | %8
 z/ (B,/D/B/F/B/) z/ (D/F/d/A/d/) | (B/e/)(G/B/)(E/"_rall."G/) (B,/G,/B,/E/"_a tempo."G/A/) | %10
 [GB]>[Ac][GB] [EG][GB][Ge] |!<(! !arpeggio![GBdg][GB]>[^A^c]!<)! [Bd]2 ([^A^c]/[Bd]/) | %12
 [c=e]"_rall."A>B c=E>^F | (=A/c/)(^F/A/)(D/F/) G2!ppp! ([D=F]/[_EG]/) | %14
 [FA][FA]>[FA] [FA][EG][FA] | ([GB]e>)[EG] [GB]2 ([DF]/[EG]/) | [FA][FA]>[FA] [FA][EG][FA] | %17
 [GB]e>[EG] [GB][GB][GB] | [ce][Bd]>[Ac] [GB]2 ([^F=A]/[GB]/) | [_Ac][GB]>[FA] [EG]2 [EG] | %20
 [A,CF]>[FA][Bd]/[GB]/ [GB]!fermata![eg]>[Ge] | [Bd][ca]>[Bd] [Ge]2!mf! =e | (f/A<)dc/ (B/E<)AG/ | %23
 (F/c/)(B/f/)(B/b/) e2 |[K:G]!mf! G/G/ | (G/B,/)(D/[GB]/)(D/[GB]/) z/ B,/(D/[GB]/)(D/[GB]/) | %26
 ([GB]/[ce]/[Bd]/[^A^c]/).[Bd]/.[ce]/ ([Bd]/g/)[GB][=FA]/[GB]/ | %27
 [Ac](F/D/)(F/D/) [Fd]([Ac]/D/)([Ac]/D/) | %28
 [Aa]/([B^g]/[ca]/[db]/[ca]/[Af]/) ([Fd]/[FA]/)[Ac]([GB]/[Ac]/) | %29
 [Bd]>[^A^c][Bd] [Bd]!arpeggio![GBdg]>[Bd] | %30
 !arpeggio![=FAce][Fd][FA] [GB]2 (G,/8B,/8D/8G/8B/4d/4) | %31
!<(! [ce]>[Bd][ce]!<)!!>(! [ce]>[Bd][Ac]!>)! |"_rall." [CA][B,G]>[A,F] !fermata![B,G]2 || %33
[K:Eb]"_a tempo." ([DF]/[EG]/) |!pp! [FA]>[FA][FA] [FA]([EG][FA]) | %35
 [GB][Ge]>[EG] [GB]2 [DF]/[EG]/ | [FA]>[FA][FA] [FA][EG][FA] | [GB][Ge]>[EG] [GB]2 [GB]/[GB]/ | %38
 [ce]>[Bd][Ac] [GB]2 ([^F=A]/[GB]/) | [_Ac][GB]>[FA] [EG]2 [B,G]/[B,G]/ | %40
 [A,F]2 ([Fd]/[Ac]/) [GB]!fermata![eg][Ge] | [Bd]!fermata![Adfa]>d e2!mf! z | (f/A<)dc/ (B/E<)AG/ | %43
 (F/c/)(B/f/)(d/b/ e2) || E/E/ | F>DE C2 E/F/ | G>_G=G E2 [EG]/[EG]/ | %47
 [EG]>[D^F][EG] [Ac][GB][EG] | [GB][FA][EG] [DF]2 B,/B,/ | B,[DF][EG] [FA]2 D/D/ | DAB c2 B/B/ | %51
 A/D/B/D/B/c/ B/D/B/D/B/ z/ |"_rall." (A/C/)(G/B,/)(F/A,/) [G,E]2!pp!!pp! [DF]/"_a tempo."[EG]/ | %53
 [FA]>[FA][FA] [FA][EG][FA] | [GB][Ge][EG] [GB]2 ([EG]/[DF]/) | [FA][FA]>[FA] [FA][EG][FA] | %56
 [GB][Ge]>[EG] [GB]2 [GB]/[GB]/ | [ce]>[Bd][Ac] [GB]2 ([^F=A]/[GB]/) | %58
 [Ac][GB]>[FA] [FA]2 [B,G]/[B,G]/ |"_rall." [A,F][B,G][CA] [B,G]!fermata![G,B,]>G | %60
 [A,F]!fermata!B,>[A,F] [G,E]2 || [CE]/[CE]/ | [CE]2 [CE] [CEA]2 [CEA] | %63
 [EAc]2 [EAc] [Ace]2 ([Bd]/[Ac]/) | [GB]2 [B,EG] [G,B,E]2 [B,EG] | %65
 (B,/D/F/B/)(d/f/) b2 ([B,D]/[CE]/) | [DF][FA]>[DB] [Fd]2 [Fd] | [DB][Bd][ce] [df]2 [ce]/[ce]/ | %68
 [ce]>[Bd][GB] [GB]>[FA][EG] | ([Ac]/a/)([GB]/g/)([FA]/f/) [GBe]2 z |] %70
V:3
 z | .B,,,D,B, [G,B,D]2 z | .E,,E,B, [B,EG]2 z | (B,,/D,/F,/B,/D,/F,/) (B,,/D,/F,/D,/B,,/D,/) | %4
 E,B,,G,, z !arpeggio![E,,G,,B,,E,]2 || z | [E,,E,]2 z (E,,E,)[G,B,D] | [A,,,A,,]2 z [A,,A,]2 z | %8
 [B,,,B,,]2 z (B,,,B,,).[F,B,D] | ([E,,E,]E[G,B,]) E,,!arpeggio![E,,G,,B,,E,] z | %10
 [E,,E,]([G,B,]/E/)([G,B,]/E/) [E,,E,]([G,B,]/E/)([G,B,]/E/) | %11
 [G,,,G,,][D,G,=B,][D,G,B,] [G,,,G,,][C,G,B,][C,G,B,] | %12
 [C,,C,][=A,C=E][A,CE] [=A,,,=A,,][G,=B,E][G,B,E] | [D,,D,][^F,=A,C][F,A,C] [G,=B,]2"^a tempo." z | %14
 B,,[E,G,B,][E,G,B,] B,,[E,G,B,][E,G,B,] | [E,,E,][B,,E,G,][B,,E,G,] [E,G,B,]2 z | %16
 B,,[E,G,B,][E,G,B,] B,,[E,G,B,][E,G,B,] | [E,,E,][E,G,B,][E,G,B,] [E,G,B,]2 z | %18
 [A,CE]2 [A,CE] [E,G,B,E]2 z | [D,F,B,]2 [D,F,B,] [E,G,B,]2 z | %20
 [A,,,A,,][C,F,A,][F,A,C] [E,G,B,]!fermata![G,B,D] z | %21
 [B,,D,F,B,]!fermata![B,,D,F,B,][B,,D,F,A,] [E,G,].E,, z | %22
 [A,,,=A,,][E,G,C][E,G,C] [B,,,B,,][E,G,B,][E,G,B,] | B,,[D,F,B,][F,B,D] [E,G,B,E]2 |[K:G] z | %25
 [G,,,G,,][B,,D,G,][B,,D,G,] [G,,,G,,][B,,D,G,][B,,D,G,] | [G,,,G,,][D,G,B,][D,G,B,] [E,G,B,]2 z | %27
 [D,,D,][F,A,C][F,A,C] [D,,D,][F,A,C][F,A,C] | [D,,D,][D,F,A,][D,F,A,] [D,F,A,]2 z | %29
 [G,,G,][G,B,D][G,B,D] [G,,G,][G,B,D][G,B,D] | [D,,D,][F,A,D][F,A,D] [G,B,D]2 z | %31
 [C,,C,][G,CE][G,CE] G,,[G,B,D][G,B,D] | %32
 [C,,C,][D,,D,][K:treble]d[K:bass] !fermata![G,,B,,D,G,]2 ||[K:Eb] z | %34
 B,,[D,F,A,][D,F,A,] B,,[D,F,A,][D,F,A,] | [E,,E,][B,,E,G,][B,,E,G,] [E,G,B,]2 z | %36
 B,,[D,F,A,][D,F,A,] B,,[D,F,A,][D,F,A,] | [E,,E,][B,,E,G,][B,,E,G,] [E,G,B,]2 z | %38
 [A,CE]2 [A,CE] [E,G,B,E]2 z | [D,F,B,]2 [B,,D,F,B,] [E,G,B,]2 z | %40
 [A,,,A,,]2 [F,A,C] [E,G,B,]!fermata![E,G,B,E] z | %41
 [B,,D,F,B,]!fermata![B,,D,F,B,]3/2[B,,D,F,A,] [E,G,]2 z/ | %42
 [B,,,B,,]G,/B,/A,/B,/ [E,,E,]G,/B,/E,/B,/ | B,,[F,B,D][F,B,D] [E,G,B,E]2 || z | %45
 [C,E,G,]2 [C,E,G,] [C,E,G,]2 z | [C,E,G,]2 [C,E,G,] [C,E,G,]2 z | %47
 [E,,E,][E,G,B,][E,G,B,] [E,,E,][E,G,B,][E,G,B,] | B,,[D,F,B,][D,F,B,] [D,F,B,]2 z | %49
 [B,,D,F,A,]2 [B,,D,F,A,] [B,,D,F,A,]2 z | [B,,D,F,A,]2 [B,,D,F,A,] [B,,D,F,A,]2 z | %51
 .[B,,,B,,F,A,][F,A,]/ [D,F,].[B,,,B,,][F,A,][D,F,] x/ | [A,,,B,,][B,,,B,,][D,,D,] [E,,E,]2 z | %53
 B,,[D,F,A,][D,F,A,] B,,[D,F,A,][D,F,A,] | [E,,E,][B,,E,G,][B,,E,G,] [E,G,B,]2 z | %55
 B,,[D,F,A,][D,F,A,] B,,[D,F,A,][D,F,A,] | [E,,E,][E,G,B,][E,G,B,] [E,G,B,]2 z | %57
 [A,CE]2 [A,CE] [E,G,B,E]2 z | [D,F,B,]2 [B,,D,F,B,] [D,G,B,]2 z | %59
 A,,G,,F,, E,,!fermata![E,,G,,B,,E,] z | [B,,,B,,][B,,D,F,] !fermata!z [E,,E,][E,,,E,,] || z | %62
 [A,,C,E,A,]2 [A,,C,E,A,] [A,,C,E,A,]2 [A,,C,E,A,] | [A,,C,E,A,]2 [A,,C,A,] [A,,C,E,A,]2 z | %64
 E,,E,E,, E,E,,E, | [B,,,B,,][D,F,B,][D,F,B,] [B,,D,F,B,]2 z | %66
 [B,,D,F,B,]2 [B,,D,F,B,] [B,,D,B,]2 [B,,D,F,B,] | [B,,D,F,B,]2 [B,,D,F,B,] [B,,D,F,B,]2 z | %68
 [A,CE]2 [A,CE] [E,G,B,E]2 [E,G,B,] | [A,,A,][B,,B,][D,,D,] [E,,E,][E,,E,] z |] %70

